!!!SOCIAL_FUNCTION:	songs used in treatment of the sick
!!!PDT:	1918

Specific Region: Dakotas, Minnesota, Montana, Nebraska
!!!REG: Dakotas and Montana
!!!LING_GROUP: Siouan
!!!LANG: Tone
!!!OTL@ENG: Sitting Bull's Medicine Song (b)
!!!ONM: No. 92
**kern
*Imale
*clefF4
*k[b-e-]
*M3/4
*MM96
12d
12d
12d
=1
[2d
8.d]
16d
=2
8d
8c
4c
8B-
8B-
=3||
*M2/4
[2B-
=4
4B-]
12B-
12B-
12B-
=5||
*M3/4
[2B-
8.B-]
16B-
=6
8B-
8B-
4B-
8F
8F
=7||
*M2/4
[2F
=8
4F]
12G
12G
12B-
=9||
*M3/4
[2B-
8.B-]
16B-
=10
8B-
8B-
4B-
8B-
8B-
=11||
*M2/4
[2B-
=12
2B-]
=13
8d
8d
8.d
16d
=14
4.d
8c
=15||
*M3/4
12c
12B-
12B-
2B-
=16||
*M2/4
4B-
12B-
12B-
12B-
=17||
*M3/4
[2B-
8.B-]
16B-
=18
8B-
8B-
4B-
8F
8F
=19||
*M2/4
[2F
=20
4F]
12G
12G
12G
=21||
*M3/4
[2B-
8.B-]
16B-
=22
8B-
8B-
4B-
8B-
8B-
=23
2.B-
==
*-
!!!CNT: Native American -- Sioux
!!!MRD: 1911/07//-1914///
!!!OCL: Frances Densmore
!!!YOR1: Teton Sioux Music, Bulletin 61,
!!!YOR2: Bureau of American Ethnology, Smithsonian Institution
!!!PPR: Government Printing Office
!!!PPP: Washington, D.C.
!!!PDT: 1918///
!!!ENC: Craig Stuart Sapp
!!!END: 2002/03/25/
!!!EEV: 2002/03/31/
!!!AGN: Song of Personal Dreams/Song Used in Treatment of the Sick
!!!MPN@@SIO: Tatang'ka-wangzhi'la
!!!MPN@ENG: One Buffalo
!!!TXO: Teton Sioux
!!!MLC: Standing Rock Reservation, South Dakota, United States of America
!!!ARL: 45.9/-100.7#
!!!catalog: Catalogue No. 655
!!!PPG: 273
!!!EFL: 92/245
!!!VTS: 3675186069
